trickcal/cg-gen/assets/icons/1007-slide.svg

<?xml version="1.0" encoding="UTF-8" standalone="no"?>
<!-- Created with Inkscape (http://www.inkscape.org/) -->

<svg
   width="20"
   height="20"
   viewBox="0 0 0.2 0.2"
   version="1.1"
   id="svg1"
   inkscape:version="1.3.2 (091e20e, 2023-11-25, custom)"
   sodipodi:docname="1007-slide.svg"
   xmlns:inkscape="http://www.inkscape.org/namespaces/inkscape"
   xmlns:sodipodi="http://sodipodi.sourceforge.net/DTD/sodipodi-0.dtd"
   xmlns="http://www.w3.org/2000/svg"
   xmlns:svg="http://www.w3.org/2000/svg">
  <sodipodi:namedview
     id="namedview1"
     pagecolor="#ffffff"
     bordercolor="#999999"
     borderopacity="1"
     inkscape:showpageshadow="2"
     inkscape:pageopacity="0"
     inkscape:pagecheckerboard="true"
     inkscape:deskcolor="#d1d1d1"
     inkscape:document-units="px"
     showgrid="true"
     inkscape:lockguides="false"
     inkscape:zoom="32.776423"
     inkscape:cx="8.0240605"
     inkscape:cy="9.6868411"
     inkscape:window-width="1920"
     inkscape:window-height="1009"
     inkscape:window-x="-8"
     inkscape:window-y="-8"
     inkscape:window-maximized="1"
     inkscape:current-layer="layer1">
    <inkscape:grid
       id="grid1"
       units="px"
       originx="0"
       originy="0"
       spacingx="0.01"
       spacingy="0.01"
       empcolor="#0099e5"
       empopacity="0.30196078"
       color="#0099e5"
       opacity="0.14901961"
       empspacing="5"
       dotted="false"
       gridanglex="30"
       gridanglez="30"
       visible="true" />
  </sodipodi:namedview>
  <defs
     id="defs1" />
  <g
     inkscape:label="Layer 1"
     inkscape:groupmode="layer"
     id="layer1">
    <path
       id="rect7"
       style="fill:#000000;stroke-width:0.0141421"
       d="M 0 0.02 L 0 0.06 L 0 0.14 L 0 0.18 L 0.02 0.18 L 0.18 0.18 L 0.2 0.18 L 0.2 0.14 L 0.2 0.02 L 0 0.02 z M 0.01 0.03 L 0.040019531 0.03 L 0.040019531 0.05 L 0.01 0.05 L 0.01 0.03 z M 0.06 0.03 L 0.090019531 0.03 L 0.090019531 0.05 L 0.06 0.05 L 0.06 0.03 z M 0.11 0.03 L 0.14001953 0.03 L 0.14001953 0.05 L 0.11 0.05 L 0.11 0.03 z M 0.16 0.03 L 0.19001953 0.03 L 0.19001953 0.05 L 0.16 0.05 L 0.16 0.03 z M 0.02 0.06 L 0.18 0.06 L 0.18 0.14 L 0.02 0.14 L 0.02 0.06 z M 0.01 0.15 L 0.040019531 0.15 L 0.040019531 0.17 L 0.01 0.17 L 0.01 0.15 z M 0.06 0.15 L 0.090019531 0.15 L 0.090019531 0.17 L 0.06 0.17 L 0.06 0.15 z M 0.11 0.15 L 0.14001953 0.15 L 0.14001953 0.17 L 0.11 0.17 L 0.11 0.15 z M 0.16 0.15 L 0.19001953 0.15 L 0.19001953 0.17 L 0.16 0.17 L 0.16 0.15 z " />
  </g>
</svg>

<?xml version="1.0" encoding="UTF-8" standalone="no"?>
<!-- Created with Inkscape (http://www.inkscape.org/) -->

<svg
   width="20"
   height="20"
   viewBox="0 0 0.2 0.2"
   version="1.1"
   id="svg1"
   inkscape:version="1.3.2 (091e20e, 2023-11-25, custom)"
   sodipodi:docname="1007-slide.svg"
   xmlns:inkscape="http://www.inkscape.org/namespaces/inkscape"
   xmlns:sodipodi="http://sodipodi.sourceforge.net/DTD/sodipodi-0.dtd"
   xmlns="http://www.w3.org/2000/svg"
   xmlns:svg="http://www.w3.org/2000/svg">
  <sodipodi:namedview
     id="namedview1"
     pagecolor="#ffffff"
     bordercolor="#999999"
     borderopacity="1"
     inkscape:showpageshadow="2"
     inkscape:pageopacity="0"
     inkscape:pagecheckerboard="true"
     inkscape:deskcolor="#d1d1d1"
     inkscape:document-units="px"
     showgrid="true"
     inkscape:lockguides="false"
     inkscape:zoom="32.776423"
     inkscape:cx="8.0393153"
     inkscape:cy="9.6868411"
     inkscape:window-width="1920"
     inkscape:window-height="1009"
     inkscape:window-x="-8"
     inkscape:window-y="-8"
     inkscape:window-maximized="1"
     inkscape:current-layer="layer1">
    <inkscape:grid
       id="grid1"
       units="px"
       originx="0"
       originy="0"
       spacingx="0.01"
       spacingy="0.01"
       empcolor="#0099e5"
       empopacity="0.30196078"
       color="#0099e5"
       opacity="0.14901961"
       empspacing="5"
       dotted="false"
       gridanglex="30"
       gridanglez="30"
       visible="true" />
  </sodipodi:namedview>
  <defs
     id="defs1" />
  <g
     inkscape:label="Layer 1"
     inkscape:groupmode="layer"
     id="layer1">
    <path
       id="rect7"
       style="fill:#000000;stroke-width:0.0141421"
       d="M 0,0.02 V 0.06 0.14 0.18 H 0.02 0.18 0.2 V 0.14 0.02 Z M 0.01,0.03 H 0.04001953 V 0.05 H 0.01 Z m 0.05,0 H 0.09001953 V 0.05 H 0.06 Z m 0.05,0 h 0.0300195 V 0.05 H 0.11 Z m 0.05,0 h 0.0300195 V 0.05 H 0.16 Z M 0.01,0.06 h 0.18 l 0,0.08 -0.18,0 z m 0,0.09 H 0.04001953 V 0.17 H 0.01 Z m 0.05,0 H 0.09001953 V 0.17 H 0.06 Z m 0.05,0 h 0.0300195 V 0.17 H 0.11 Z m 0.05,0 h 0.0300195 V 0.17 H 0.16 Z"
       sodipodi:nodetypes="ccccccccccccccccccccccccccccccccccccccccccccccccccccccc" />
  </g>
</svg>
